src/components/00-materials/images-raw/Fryer.svg

<svg width="96" height="96" viewBox="0 0 96 96" fill="none" xmlns="http://www.w3.org/2000/svg">
<path d="M72.11 42.3901H23.9C17.4217 42.3901 12.17 47.6418 12.17 54.1201V69.1801C12.17 75.6584 17.4217 80.9101 23.9 80.9101H72.11C78.5883 80.9101 83.84 75.6584 83.84 69.1801V54.1201C83.84 47.6418 78.5883 42.3901 72.11 42.3901Z" stroke="#00008F" stroke-width="2" stroke-linecap="round" stroke-linejoin="round"/>
<path d="M83.83 53.14H91H83.83ZM5 53.14H12.17H5ZM24.94 74.07C24.94 74.5372 24.8013 74.9939 24.5416 75.3822C24.2818 75.7705 23.9126 76.073 23.4808 76.2513C23.049 76.4297 22.574 76.4758 22.1159 76.3839C21.6578 76.2921 21.2373 76.0663 20.9077 75.7353C20.578 75.4042 20.3541 74.9828 20.2641 74.5243C20.1742 74.0659 20.2224 73.591 20.4025 73.16C20.5827 72.7289 20.8867 72.361 21.2761 72.1029C21.6656 71.8448 22.1228 71.7081 22.59 71.71C23.2142 71.7127 23.8119 71.9625 24.2523 72.4048C24.6927 72.8471 24.94 73.4459 24.94 74.07V74.07ZM34.38 74.07C34.38 74.536 34.2421 74.9914 33.9836 75.3791C33.7252 75.7667 33.3578 76.0692 32.9277 76.2484C32.4976 76.4276 32.0241 76.4755 31.5669 76.3861C31.1097 76.2966 30.6891 76.0738 30.3583 75.7458C30.0274 75.4177 29.8011 74.9991 29.7078 74.5426C29.6145 74.0861 29.6584 73.6123 29.834 73.1807C30.0095 72.7491 30.3089 72.3792 30.6943 72.1175C31.0798 71.8558 31.5341 71.714 32 71.71C32.3116 71.7074 32.6206 71.7665 32.9093 71.8839C33.1979 72.0013 33.4604 72.1748 33.6817 72.3942C33.903 72.6136 34.0786 72.8746 34.1985 73.1623C34.3183 73.4499 34.38 73.7584 34.38 74.07V74.07ZM19.33 42.8801V37.2701H76.67V43.32L19.33 42.8801ZM19.33 27.05H76.66V32.16H19.33V27.05Z" stroke="#00008F" stroke-width="2" stroke-linecap="round" stroke-linejoin="round"/>
<path d="M55.17 15.0901H84.63M19.33 32.1601H76.66V37.2701H19.33V32.1601ZM19.33 21.9401H76.66V27.0501H19.33V21.9401ZM26.5 21.9401V42.3901V21.9401ZM33.67 21.9401V42.3901V21.9401ZM40.83 21.9401V42.3901V21.9401ZM48 21.9401V42.3901V21.9401ZM55.17 15.0901V42.3901V15.0901ZM62.33 15.0901V42.3901V15.0901ZM69.5 21.9401V42.3901V21.9401Z" stroke="#00008F" stroke-width="2" stroke-linecap="round" stroke-linejoin="round"/>
</svg>

<svg width="96" height="96" viewBox="0 0 96 96" fill="none" xmlns="http://www.w3.org/2000/svg"><path d="M72.11 42.39H23.9c-6.478 0-11.73 5.252-11.73 11.73v15.06c0 6.478 5.252 11.73 11.73 11.73h48.21c6.478 0 11.73-5.252 11.73-11.73V54.12c0-6.478-5.252-11.73-11.73-11.73z" stroke="#00008F" stroke-width="2" stroke-linecap="round" stroke-linejoin="round"/><path d="M83.83 53.14H91h-7.17zM5 53.14h7.17H5zm19.94 20.93a2.36 2.36 0 11-4.72 0 2.36 2.36 0 014.72 0v0zm9.44 0a2.36 2.36 0 11-4.72 0 2.36 2.36 0 014.72 0v0zM19.33 42.88v-5.61h57.34v6.05l-57.34-.44zm0-15.83h57.33v5.11H19.33v-5.11z" stroke="#00008F" stroke-width="2" stroke-linecap="round" stroke-linejoin="round"/><path d="M55.17 15.09h29.46m-65.3 17.07h57.33v5.11H19.33v-5.11zm0-10.22h57.33v5.11H19.33v-5.11zm7.17 0v20.45-20.45zm7.17 0v20.45-20.45zm7.16 0v20.45-20.45zm7.17 0v20.45-20.45zm7.17-6.85v27.3-27.3zm7.16 0v27.3-27.3zm7.17 6.85v20.45-20.45z" stroke="#00008F" stroke-width="2" stroke-linecap="round" stroke-linejoin="round"/></svg>
